!!!!SEGMENT: pl-wtm--r-1740-m--002-007_moniuszko-stanislaw--sonety-krymskie-hymn-czatyrdah.krn
!!!cenid: 18xx:2924
!!!COM: Moniuszko, Stanisław
!!!COM-rismID: pe30008351
!!!CDT: 1819/05/05-1872/06/04
!!!CNT: Polish
!!!GTL: Sonety krymskie
!!!OTL: Hymn Czatyrdah
!!!OMV: 007
!!!PDT:
!!!AGN: Secular; Sonnet
!!!SMS-siglum: PL-Wtm
!!!SMS-shelfmark: R 1740/M
!!!SMS-shelfwork: 002-007 G
!!!SMS-variant:
!!!SMS-altvar:
!!!NIFC-rismSourceID: 1001096359
!!!NIFC-islandoraID:
!!!URL-pdf-islandora:
!!!URL-scan:
!!!ONB-nifc: UWAGA: Hymn zatytułowany jako No. 7. W zbiorze 2 aranżacje Sonetów. Pliki nr 001-001-010 w
!!!OMD: Maëstoso.
!!!AIN: 1 clars 1 cor 3 empty 1 fagot 1 oboe 1 timpa
!!!key:
**kern	**dynam	**kern	**dynam	**kern	**kern	**dynam	**kern	**dynam	**kern	**dynam	**kern	**dynam	**kern	**dynam
*part8	*part8	*part7	*part7	*part6	*part5	*part5	*part4	*part4	*part3	*part3	*part2	*part2	*part1	*part1
*staff8	*	*staff7	*	*staff6	*staff5	*	*staff4	*	*staff3	*	*staff2	*	*staff1	*
*Itimpa	*	*Iempty	*	*Iempty	*Iempty	*	*Icor	*	*Ifagot	*	*Iclars	*	*Ioboe	*
*I"Timp.	*	*I"oph..	*	*I"Trombonii	*I"in Es.	*	*I"in F. Corni	*	*I"Fagotti.	*	*I"in B. Clarinetti.	*	*I"Oboi.	*
*	*	*	*	*	*	*	*	*	*group1	*	*group1	*	*group1	*
*clefF4	*	*clefF4	*	*clefC4	*clefG2	*	*clefG2	*	*clefF4	*	*clefG2	*	*clefG2	*
*	*	*	*	*	*ITrd5c9	*	*ITrd4c7	*	*	*	*ITrd1c2	*	*	*
*	*	*k[b-e-a-d-g-]	*	*k[b-e-a-d-g-]	*	*	*	*	*k[b-e-a-d-g-]	*	*k[b-e-a-d-g-]	*	*k[b-e-a-d-g-]	*
*	*	*D-:	*	*D-:	*	*	*	*	*D-:	*	*D-:	*	*D-:	*
*M2/2	*	*M2/2	*	*M2/2	*M2/2	*	*M2/2	*	*M2/2	*	*M2/2	*	*M2/2	*
*met(c|)	*	*met(c|)	*	*met(c|)	*met(c|)	*	*met(c|)	*	*met(c|)	*	*met(c|)	*	*met(c|)	*
*all\right	*	*all\right	*	*all\right	*all\right	*	*all\right	*	*all\right	*	*all\right	*	*all\right	*
=1	=1	=1	=1	=1	=1	=1	=1	=1	=1	=1	=1	=1	=1	=1
!	!	!	!	!	!	!	!	!	!	!	!	!	!LO:TX:a:Bi:t=No 7.:color=dodgerblue	!
!	!	!	!	!LO:TX:t=P:problem=dodatkowa partia nad pięciolinią wykreślona	!	!	!	!	!LO:TX:b:t=1.	!	!	!	!LO:TX:b:t=1.	!
1r	.	1r	.	1ryy	1r	.	1r	.	1r	.	1r	.	1r	.
=2	=2	=2	=2	=2	=2	=2	=2	=2	=2	=2	=2	=2	=2	=2
!LO:TX:b:B:t=A=:color=red	!	!LO:TX:a:t=1:color=dodgerblue:problem=powinno być 2	!	!LO:TX:a:t=1:color=dodgerblue:problem=powinno być 2	!LO:TX:a:t=2:color=dodgerblue	!	!	!	!LO:TX:a:t=2:color=dodgerblue	!	!	!	!LO:TX:a:t=2:color=dodgerblue	!
1r	.	1r	.	1r	1r	.	1r	.	1r	.	1r	.	1r	.
=3	=3	=3	=3	=3	=3	=3	=3	=3	=3	=3	=3	=3	=3	=3
!	!	!LO:TX:t=P:problem=dodatkowy takt zgodnie z pozostałymi głosami	!	!LO:TX:t=P:problem=dodatkowy takt zgodnie z pozostałymi głosami	!	!	!	!	!	!	!	!	!LO:TX:t=P:problem=kreska taktowa w kolorze brązowym [wszystkie systemy]	!
1ryy	.	1ryy	.	1ryy	1r	.	1r	.	1r	.	1r	.	1r	.
=4	=4	=4	=4	=4	=4	=4	=4	=4	=4	=4	=4	=4	=4	=4
*	*	*	*	*	*	*	*	*	*^	*	*	*	*	*
!	!	!	!	!	!	!	!	!	!	!	!	!	!	!LO:TX:a:B:t=A:color=brown	!
1ryy	.	1ryy	.	1ryy	1ryy	.	1ryy	.	2r	2ryy	.	1ryy	.	1ryy	.
*	*	*	*	*	*	*	*	*	*2\right	*	*	*	*	*	*
!	!	!	!	!	!	!	!	!	!	!	!LO:DY:rj	!	!	!	!
.	.	.	.	.	.	.	.	.	2E-/	2E-\	p	.	.	.	.
=5	=5	=5	=5	=5	=5	=5	=5	=5	=5	=5	=5	=5	=5	=5	=5
*	*	*	*	*	*	*	*^	*	*	*	*	*	*	*	*
1ryy	.	1ryy	.	1ryy	1ryy	.	2r	2ryy	.	2A-^/	2A-\	.	1ryy	.	1ryy	.
!	!	!	!	!	!	!	!	!	!LO:DY:rj	!	!	!	!	!	!	!
.	.	.	.	.	.	.	4r	4ryy	p	[2C^/	[>2C\	.	.	.	.	.
.	.	.	.	.	.	.	4c/	4c\	.	.	.	.	.	.	.	.
=6	=6	=6	=6	=6	=6	=6	=6	=6	=6	=6	=6	=6	=6	=6	=6	=6
*	*	*	*	*	*	*	*2\right	*	*	*	*	*	*	*	*	*
1ryy	.	1ryy	.	1ryy	1ryy	.	2f^/	2f\	.	4C/]	4C\]	.	1r	.	1ryy	.
.	.	.	.	.	.	.	.	.	.	4r	4ryy	.	.	.	.	.
.	.	.	.	.	.	.	2F^/	2F\	.	2r	2ryy	.	.	.	.	.
*	*	*	*	*	*	*	*v	*v	*	*	*	*	*	*	*	*
=7	=7	=7	=7	=7	=7	=7	=7	=7	=7	=7	=7	=7	=7	=7	=7
1ryy	.	1ryy	.	1ryy	1ryy	.	1ryy	.	1D-	1D-	.	(>2.d-/	.	1ryy	.
.	.	.	.	.	.	.	.	.	.	.	.	4e-/	.	.	.
=8	=8	=8	=8	=8	=8	=8	=8	=8	=8	=8	=8	=8	=8	=8	=8
1ryy	.	1ryy	.	1ryy	1ryy	.	1ryy	.	(4A-/	4A-\	.	4f/	.	1ryy	.
.	.	.	.	.	.	.	.	.	8G-/L	8G-\L	.	4g-/	.	.	.
.	.	.	.	.	.	.	.	.	8F/J	8F\J	.	.	.	.	.
.	.	.	.	.	.	.	.	.	8E-/L	8E-\L	.	4a-/	.	.	.
.	.	.	.	.	.	.	.	.	8F/J	8F\J	.	.	.	.	.
.	.	.	.	.	.	.	.	.	[4G-/	[>4G-\	.	8b-/L	.	.	.
.	.	.	.	.	.	.	.	.	.	.	.	8cc/J	.	.	.
=9	=9	=9	=9	=9	=9	=9	=9	=9	=9	=9	=9	=9	=9	=9	=9
1ryy	.	1ryy	.	1ryy	1ryy	.	1ryy	.	2G-/]	2G-\]	.	[2dd-/	.	1ryy	.
.	.	.	.	.	.	.	.	.	[2D-/)	[>2D-\	.	8dd-/])	.	.	.
.	.	.	.	.	.	.	.	.	.	.	.	8r	.	.	.
.	.	.	.	.	.	.	.	.	.	.	.	4r	.	.	.
=10	=10	=10	=10	=10	=10	=10	=10	=10	=10	=10	=10	=10	=10	=10	=10
!LO:TX:b:B:t==B.:color=red	!	!	!	!	!	!	!	!	!	!	!	!	!	!LO:TX:a:B:t==B.:color=red	!
1ryy	.	1ryy	.	1ryy	1ryy	.	1ryy	.	(1D-]	(>1D-]	.	1r	.	1ryy	.
!!LO:LB:g=original
=11	=11	=11	=11	=11	=11	=11	=11	=11	=11	=11	=11	=11	=11	=11	=11
!	!	!	!	!	!	!	!	!	!LO:TX:t=P:problem=brak zakończenia łuków	!	!	!	!	!	!
1r	.	1r	.	1r	1r	.	1r	.	4AA-/)	4AA-\)	.	1r	.	1r	.
.	.	.	.	.	.	.	.	.	4r	4ryy	.	.	.	.	.
.	.	.	.	.	.	.	.	.	2r	2ryy	.	.	.	.	.
*	*	*	*	*	*	*	*	*	*v	*v	*	*	*	*	*
=12	=12	=12	=12	=12	=12	=12	=12	=12	=12	=12	=12	=12	=12	=12
!	!	!LO:TX:a:t=3	!	!LO:TX:a:t=3	!	!	!LO:TX:a:t=3	!	!LO:TX:a:t=3	!	!	!	!LO:TX:a:t=3	!
1r	.	1r	.	1r	1r	.	1r	.	1r	.	1r	.	1r	.
=13	=13	=13	=13	=13	=13	=13	=13	=13	=13	=13	=13	=13	=13	=13
1r	.	1r	.	1r	1r	.	1r	.	1r	.	1r	.	1r	.
=14	=14	=14	=14	=14	=14	=14	=14	=14	=14	=14	=14	=14	=14	=14
1r	.	1r	.	1r	1r	.	1r	.	1r	.	1r	.	1r	.
=15	=15	=15	=15	=15	=15	=15	=15	=15	=15	=15	=15	=15	=15	=15
*	*	*	*	*	*	*	*	*	*^	*	*	*	*	*
1ryy	.	1ryy	.	1ryy	1r	.	1r	.	([2G-/	[>2G-\	<	1r	.	1r	.
.	.	.	.	.	.	.	.	.	8G-/L]	8G-\L]	.	.	.	.	.
.	.	.	.	.	.	.	.	.	8F/	8F\	[	.	.	.	.
.	.	.	.	.	.	.	.	.	8E-/	8E-\	.	.	.	.	.
!	!	!	!	!	!	!	!	!	!	!	!	!	!LO:DY:a	!	!
.	.	.	.	.	.	f	.	f	8D-/J	8D-\J	.	.	f	.	.
=16	=16	=16	=16	=16	=16	=16	=16	=16	=16	=16	=16	=16	=16	=16	=16
*	*	*	*	*	*	*	*^	*	*	*	*	*	*	*	*
1ryy	.	1ryy	.	1ryy	4e- 4E-/	.	4g-X/	4A-X\	.	4C/)	4C\	f	4ee- 4g-X/	.	1r	.
.	.	.	.	.	8.e-L 8.E-/	.	8.g-/L	8.A-\L	.	8.C/L	8.C\L	.	8.ee-L 8.g-/	.	.	.
.	.	.	.	.	16e-Jk 16E-/	.	16g-/Jk	16A-\Jk	.	16C/Jk	16C\Jk	.	16ee-Jk 16g-/	.	.	.
.	.	.	.	.	4e- 4E-/	.	4g-/	4A-\	.	4C/	4C\	.	4ee- 4g-/	.	.	.
.	.	.	.	.	4d-X 4F/	.	4f/	4A-\	.	4D-/	4D-\	.	4dd- 4f/	.	.	.
=17	=17	=17	=17	=17	=17	=17	=17	=17	=17	=17	=17	=17	=17	=17	=17	=17
*	*	*	*	*	*	*	*	*	*	*	*	*	*^	*	*	*
*	*	*	*	*	*	*	*	*	*	*	*	*	*2\right	*	*	*	*
!	!	!	!	!	!	!	!	!	!	!	!LO:S:s=1:note:problem=note-level slur	!	!	!	!	!	!
1ryy	.	1ryy	.	1r	4e- 4E-/	.	[2e-X/	[2A-X\	.	(2E-/	(>2E-\	.	(2dd-/	[>2g-\	>	1r	.
.	.	.	.	.	4r	.	.	.	.	.	.	.	.	.	.	.	.
!	!	!	!	!	!	!	!	!	!	!LO:TX:b:t=as.	!	!	!	!	!	!	!
.	.	.	.	.	2r	.	8e-/]	8A-\]	.	8A-/)	8A-\)	.	8cc/)	8g-\]	]	.	.
.	.	.	.	.	.	.	8r	8ryy	.	8r	8ryy	.	8r	8ryy	.	.	.
.	.	.	.	.	.	.	4r	4ryy	.	4r	4ryy	.	4r	4ryy	.	.	.
*	*	*	*	*	*	*	*v	*v	*	*	*	*	*v	*v	*	*	*
*	*	*	*	*	*	*	*	*	*v	*v	*	*	*	*	*
=18	=18	=18	=18	=18	=18	=18	=18	=18	=18	=18	=18	=18	=18	=18
!LO:TX:a:t=2	!	!LO:TX:a:t=2	!	!LO:TX:a:t=2	!LO:TX:a:t=2	!	!	!	!LO:TX:a:t=2	!	!	!	!LO:TX:b:t=2	!
1r	.	1r	.	1r	1r	.	1r	.	1r	.	1r	.	1r	.
=19	=19	=19	=19	=19	=19	=19	=19	=19	=19	=19	=19	=19	=19	=19
1r	.	1r	.	1r	1r	.	1r	.	1r	.	1r	.	1r	.
=20	=20	=20	=20	=20	=20	=20	=20	=20	=20	=20	=20	=20	=20	=20
*	*	*	*	*	*	*	*	*	*	*	*^	*	*	*
*	*	*2\right	*	*	*2\right	*	*	*	*	*	*	*	*	*	*
!	!	!	!LO:DY:rj	!	!	!LO:DY:rj	!	!LO:DY:rj	!LO:TX:a:t=a due:rj	!LO:DY:rj	!	!	!LO:DY:a:rj	!LO:TX:a:B:t=A:color=red:note=obwiedziona niebieskim kolorem	!
1ryy	.	2D-\	pp	1r	2f 2d-X\	pp	2a-X 2A-X/	pp	2D-\	p	2a- 2A-/	1r	p	1r	.
.	.	2AA-\	.	.	4.g-X 4.e-\	.	4.a- 4.A-/	.	4.AA-\	.	4.cc 4.c/	.	.	.	.
.	.	.	.	.	8g- 8e-\	.	8a- 8A-/	.	8AA-\	.	8cc 8c/	.	.	.	.
=21	=21	=21	=21	=21	=21	=21	=21	=21	=21	=21	=21	=21	=21	=21	=21
*	*	*	*	*	*	*	*^	*	*	*	*	*	*	*	*
!	!	!	!	!	!	!	!LO:TX:t=P:problem=crescendo na środku pięciolinii	!	!	!	!	!	!	!	!	!
1ryy	.	[<2DD-\	.	1r	[2f [>2d-X\	.	[2a-X/	[>2A-\	>	[2D-\	.	2b- [2d-/	1r	.	1r	.
.	.	8DD-\]	.	.	8f] 8d-\]	.	8a-/]	8A-\]	]	8D-\]	.	8a- 8d-/]	.	.	.	.
.	.	8r	.	.	8r	.	8r	8ryy	.	8r	.	8r	.	.	.	.
.	.	4r	.	.	4r	.	4r	4ryy	.	4r	.	4r	.	.	.	.
*	*	*	*	*	*	*	*v	*v	*	*	*	*v	*v	*	*	*
=22	=22	=22	=22	=22	=22	=22	=22	=22	=22	=22	=22	=22	=22	=22
!	!	!LO:TX:b:t=2	!	!LO:TX:a:t=2	!	!	!LO:TX:b:t=2	!	!LO:TX:a:t=2	!	!	!	!LO:TX:b:t=2	!
1r	.	1r	.	1r	1r	.	1r	.	1r	.	1r	.	1r	.
=23	=23	=23	=23	=23	=23	=23	=23	=23	=23	=23	=23	=23	=23	=23
1r	.	1r	.	1r	1r	.	1r	.	1r	.	1r	.	1r	.
=24	=24	=24	=24	=24	=24	=24	=24	=24	=24	=24	=24	=24	=24	=24
*	*	*	*	*	*	*	*^	*	*^	*	*^	*	*	*
!	!	!	!	!	!	!LO:DY:rj	!	!	!LO:DY:rj	!	!	!LO:DY:rj	!	!	!	!	!
1r	.	2DD-\	.	1r	2f 2d-X\	p	2A-X/	2A-X\	p	2D-/	2D-\	p	2a-/	2a-\	p	1r	.
.	.	2GG-\	.	.	4.f-X 4.d-\	.	4.B-/	4.G-X\	.	4.GG-/	4.GG-\	.	4.b-/	4.b-\	.	.	.
.	.	.	.	.	8f- 8d-\	.	8B-/	8G-\	.	8GG-/	8GG-\	.	8b-/	8b-\	.	.	.
=25	=25	=25	=25	=25	=25	=25	=25	=25	=25	=25	=25	=25	=25	=25	=25	=25	=25
*	*	*	*	*	*^	*	*	*	*	*	*	*	*	*	*	*	*
1r	.	[<2CC-X\	.	1r	[2e-/	[>2e-\	.	[2c-X/	[>2G-X\	.	[2C-X/	[>2C-\	.	[2cc-X/	[>2cc-\	.	1r	.
.	.	8CC-\]	.	.	8e-/]	8e-\]	.	8c-/]	8G-\]	.	8C-/]	8C-\]	.	8cc-/]	8cc-\]	.	.	.
.	.	8rCC	.	.	8r	8ryy	.	8r	8ryy	.	8r	8ryy	.	8r	8ryy	.	.	.
.	.	4rCC	.	.	4r	4ryy	.	4r	4ryy	.	4r	4ryy	.	4r	4ryy	.	.	.
*	*	*	*	*	*v	*v	*	*	*	*	*v	*v	*	*v	*v	*	*	*
*	*	*	*	*	*	*	*v	*v	*	*	*	*	*	*	*
!!LO:PB:g=original
=26	=26	=26	=26	=26	=26	=26	=26	=26	=26	=26	=26	=26	=26	=26
!	!	!	!	!	!	!	!	!	!	!	!LO:TX:a:t=Clar.:color=brown:rj	!	!	!
!LO:TX:a:t=2	!	!LO:TX:a:t=2	!	!	!	!	!LO:TX:b:t=2	!	!LO:TX:a:t=Fag::color=brown:rj	!	!LO:TX:b:t=2	!	!	!
1r	.	1r	.	1r	1r	.	1r	.	1r	.	1r	.	1ryy	.
=27	=27	=27	=27	=27	=27	=27	=27	=27	=27	=27	=27	=27	=27	=27
1r	.	1r	.	1r	1r	.	1r	.	1r	.	1r	.	1ryy	.
=28	=28	=28	=28	=28	=28	=28	=28	=28	=28	=28	=28	=28	=28	=28
*	*	*	*	*	*	*	*	*	*	*	*^	*	*	*
1ryy	.	1ryy	.	1ryy	1ryy	.	1ryy	.	[1B- [>1G-	.	2b-^/	1rc	.	1ryy	.
.	.	.	.	.	.	.	.	.	.	.	2e-^/	.	.	.	.
=29	=29	=29	=29	=29	=29	=29	=29	=29	=29	=29	=29	=29	=29	=29	=29
1ryy	.	1ryy	.	1ryy	1ryy	.	1ryy	.	1B-] 1G-^<]	.	(2.ee-^/	1e-^	.	1ryy	.
.	.	.	.	.	.	.	.	.	.	.	4dd-/)	.	.	.	.
=30	=30	=30	=30	=30	=30	=30	=30	=30	=30	=30	=30	=30	=30	=30	=30
*	*	*	*	*	*	*	*	*	*^	*	*	*	*	*	*
1ryy	.	1ryy	.	1ryy	1ryy	.	1ryy	.	2.A-/	1G-	.	(4dd-/	2e-\	.	1ryy	.
.	.	.	.	.	.	.	.	.	.	.	.	4cc/)	.	.	.	.
.	.	.	.	.	.	.	.	.	.	.	.	4.cc/	4.e-\	.	.	.
.	.	.	.	.	.	.	.	.	4B-/	.	.	.	.	.	.	.
.	.	.	.	.	.	.	.	.	.	.	.	8b-/	8d-\	.	.	.
=31	=31	=31	=31	=31	=31	=31	=31	=31	=31	=31	=31	=31	=31	=31	=31	=31
!	!	!	!	!	!	!	!	!	!	!	!	!	!LO:S:s=1:note:problem=note-level slur	!	!	!
1ryy	.	1ryy	.	1ryy	1ryy	.	1ryy	.	4G-/	4G-\	.	(2b-/	(>2d-\	.	1ryy	.
.	.	.	.	.	.	.	.	.	(<8F/L	4r	.	.	.	.	.	.
.	.	.	.	.	.	.	.	.	8G-/J	.	.	.	.	.	.	.
.	.	.	.	.	.	.	.	.	4A-/	2rEE	.	4a-/)	4c\)	.	.	.
!	!	!	!	!	!	!	!	!	!	!	!	!LO:TX:a:B:t=E:color=brown:note=obwiedziona niebieskim kolorem	!	!	!	!
.	.	.	.	.	.	.	.	.	4G-/)	.	.	4r	4ryy	.	.	.
*	*	*	*	*	*	*	*	*	*v	*v	*	*	*	*	*	*
*	*	*	*	*	*	*	*	*	*	*	*v	*v	*	*	*
=32	=32	=32	=32	=32	=32	=32	=32	=32	=32	=32	=32	=32	=32	=32
1ryy	.	1ryy	.	1ryy	1ryy	.	1ryy	.	4F/	.	1r	.	1ryy	.
.	.	.	.	.	.	.	.	.	4r	.	.	.	.	.
.	.	.	.	.	.	.	.	.	2r	.	.	.	.	.
=33	=33	=33	=33	=33	=33	=33	=33	=33	=33	=33	=33	=33	=33	=33
!	!	!LO:TX:b:t=4	!	!	!	!	!LO:TX:b:t=4	!	!LO:TX:b:t=4	!	!LO:TX:a:t=3.	!	!	!
1r	.	1r	.	1r	1r	.	1r	.	1r	.	1r	.	1r	.
=34	=34	=34	=34	=34	=34	=34	=34	=34	=34	=34	=34	=34	=34	=34
1r	.	1r	.	1r	1r	.	1r	.	1r	.	1r	.	1r	.
=35	=35	=35	=35	=35	=35	=35	=35	=35	=35	=35	=35	=35	=35	=35
1r	.	1r	.	1r	1r	.	1r	.	1r	.	1r	.	1r	.
=36	=36	=36	=36	=36	=36	=36	=36	=36	=36	=36	=36	=36	=36	=36
!LO:TX:t=P:problem=zbędny takt	!	!LO:TX:t=P:problem=zbędny takt	!	!LO:TX:t=P:problem=zbędny takt	!LO:TX:t=P:problem=zbędny takt	!	!LO:TX:t=P:problem=zbędny takt	!	!LO:TX:t=P:problem=zbędny takt	!	!LO:TX:t=P:problem=zbędny takt w pozostałych głosach	!	!	!
1r	.	1r	.	1r	1r	.	1r	.	1r	.	1r	.	1ryy	.
=37	=37	=37	=37	=37	=37	=37	=37	=37	=37	=37	=37	=37	=37	=37
*	*	*	*	*	*	*	*	*	*^	*	*	*	*	*
!	!	!	!	!	!	!	!	!	!LO:TX:a:t=Fag::color=brown:rj	!	!	!	!	!	!
1ryy	.	1ryy	.	1ryy	1ryy	.	1ryy	.	[1D-	[>1D-	pp	1r	.	1ryy	.
=38	=38	=38	=38	=38	=38	=38	=38	=38	=38	=38	=38	=38	=38	=38	=38
*	*	*	*	*	*	*	*	*	*rep	*rep	*	*	*	*	*
!	!	!	!	!	!	!	!	!	!	!	!	!LO:TX:a:t=Clar:color=brown:rj	!	!	!
1ryy	.	1ryy	.	1ryy	1ryy	.	1ryy	.	1D-_	1D-_>	.	[>1B-	.	1ryy	.
*	*	*	*	*	*	*	*	*	*Xrep	*Xrep	*	*	*	*	*
=39	=39	=39	=39	=39	=39	=39	=39	=39	=39	=39	=39	=39	=39	=39	=39
1ryy	.	1ryy	.	1ryy	1ryy	.	1ryy	.	2.D-/]	2.D-\]	.	1B-]	.	1ryy	.
.	.	.	.	.	.	.	.	.	4r	4ryy	.	.	.	.	.
*	*	*	*	*	*	*	*	*	*v	*v	*	*	*	*	*
=40	=40	=40	=40	=40	=40	=40	=40	=40	=40	=40	=40	=40	=40	=40
1ryy	.	1ryy	.	1ryy	1ryy	.	1ryy	.	1r	.	(2B-/	.	1ryy	.
.	.	.	.	.	.	.	.	.	.	.	2A/)	.	.	.
!!LO:LB:g=original
=41	=41	=41	=41	=41	=41	=41	=41	=41	=41	=41	=41	=41	=41	=41
*	*	*	*	*	*	*	*	*	*^	*	*	*	*	*
1ryy	.	1ryy	.	1ryy	1ryy	.	1ryy	.	(2G-^/	2G-\	.	1ryy	.	1ryy	.
.	.	.	.	.	.	.	.	.	4F/	4F\	.	.	.	.	.
.	.	.	.	.	.	.	.	.	4E-/	4E-\	.	.	.	.	.
*	*	*	*	*	*	*	*	*	*v	*v	*	*	*	*	*
=42	=42	=42	=42	=42	=42	=42	=42	=42	=42	=42	=42	=42	=42	=42
1ryy	.	1ryy	.	1ryy	1ryy	.	1ryy	.	2F 2Dn\	.	1ryy	.	1ryy	.
.	.	.	.	.	.	.	.	.	2G- 2E-\	.	.	.	.	.
=43	=43	=43	=43	=43	=43	=43	=43	=43	=43	=43	=43	=43	=43	=43
*	*	*	*	*	*	*	*	*	*^	*	*	*	*	*
1ryy	.	1ryy	.	1ryy	1ryy	.	1ryy	.	2A-/	2F\	.	1ryy	.	1ryy	.
.	.	.	.	.	.	.	.	.	2G-/	2D-\	.	.	.	.	.
=44	=44	=44	=44	=44	=44	=44	=44	=44	=44	=44	=44	=44	=44	=44	=44
!	!	!	!	!	!	!	!	!	!	!	!	!	!	!LO:TX:t=P:problem=kreska taktowa w kolorze niebieskim [wszystkie systemy]	!
1ryy	.	1ryy	.	1ryy	1ryy	.	1ryy	.	2A-/)	2AA-\	.	1ryy	.	1ryy	.
!	!	!	!	!	!	!	!	!	!LO:TX:t=P:problem=kreska taktowa w kolorze niebieskim	!	!	!	!	!	!
.	.	.	.	.	.	.	.	.	2r	2ryy	.	.	.	.	.
*	*	*	*	*	*	*	*	*	*v	*v	*	*	*	*	*
=45	=45	=45	=45	=45	=45	=45	=45	=45	=45	=45	=45	=45	=45	=45
!	!	!	!	!	!	!	!	!	!	!	!	!	!LO:TX:a:B:t=I:color=red:note=obwiedziona czerwonym kolorem	!
1r@	.	1r@	.	1r@	1r@	.	1r@	.	1r@	.	1r@	.	1r@	.
=46	=46	=46	=46	=46	=46	=46	=46	=46	=46	=46	=46	=46	=46	=46
!LO:TX:t=P:problem=brak taktu nr 46	!	!LO:TX:t=P:problem=brak taktu nr 46	!	!LO:TX:t=P:problem=brak taktu nr 46	!LO:TX:t=P:problem=brak taktu nr 46	!	!LO:TX:t=P:problem=brak taktu nr 46	!	!LO:TX:t=P:problem=brak taktu nr 46	!	!LO:TX:t=P:problem=brak taktu nr 46	!	!LO:TX:t=P:problem=brak taktu nr 46	!
1ryy	.	1ryy	.	1ryy	1ryy	.	1ryy	.	1ryy	.	1ryy	.	1ryy	.
=47	=47	=47	=47	=47	=47	=47	=47	=47	=47	=47	=47	=47	=47	=47
*	*	*	*	*	*	*	*	*	*^	*	*	*	*	*
!	!	!	!	!	!	!	!	!	!	!	!	!	!	!LO:TX:t=P:problem=kreska taktowa w kolorze brązowym [wszystkie systemy]	!
!	!	!	!	!	!	!	!	!	!	!	!	!	!	!LO:TX:a:B:t=A:color=brown	!
1ryy	.	1ryy	.	1ryy	1ryy	.	1ryy	.	2ryy	2ryy	.	1ryy	.	1ryy	.
!	!	!	!	!	!	!	!	!	!	!	!LO:DY:rj	!	!	!	!
.	.	.	.	.	.	.	.	.	2E-/yy	2E-\yy	py	.	.	.	.
=48	=48	=48	=48	=48	=48	=48	=48	=48	=48	=48	=48	=48	=48	=48	=48
*	*	*	*	*	*	*	*^	*	*	*	*	*	*	*	*
1ryy	.	1ryy	.	1ryy	1ryy	.	2ryy	2ryy	.	2A-^/yy	2A-\yy	.	1ryy	.	1ryy	.
!	!	!	!	!	!	!	!	!	!LO:DY:rj	!	!	!	!	!	!	!
.	.	.	.	.	.	.	4ryy	4ryy	py	[y2C^/yy	[y>2C\yy	.	.	.	.	.
.	.	.	.	.	.	.	4c/yy	4c\yy	.	.	.	.	.	.	.	.
=49	=49	=49	=49	=49	=49	=49	=49	=49	=49	=49	=49	=49	=49	=49	=49	=49
1ryy	.	1ryy	.	1ryy	1ryy	.	2f^/yy	2f\yy	.	4C/]yy	4C\]yy	.	1ryy	.	1ryy	.
.	.	.	.	.	.	.	.	.	.	4ryy	4ryy	.	.	.	.	.
.	.	.	.	.	.	.	2F^/yy	2F\yy	.	2ryy	2ryy	.	.	.	.	.
*	*	*	*	*	*	*	*v	*v	*	*	*	*	*	*	*	*
=50	=50	=50	=50	=50	=50	=50	=50	=50	=50	=50	=50	=50	=50	=50	=50
1ryy	.	1ryy	.	1ryy	1ryy	.	1ryy	.	1D-yy	1D-yy	.	(y>2.d-/yy	.	1ryy	.
.	.	.	.	.	.	.	.	.	.	.	.	4e-/yy	.	.	.
=51	=51	=51	=51	=51	=51	=51	=51	=51	=51	=51	=51	=51	=51	=51	=51
1ryy	.	1ryy	.	1ryy	1ryy	.	1ryy	.	(y4A-/yy	4A-\yy	.	4f/yy	.	1ryy	.
.	.	.	.	.	.	.	.	.	8G-/Lyy	8G-\Lyy	.	4g-/yy	.	.	.
.	.	.	.	.	.	.	.	.	8F/Jyy	8F\Jyy	.	.	.	.	.
.	.	.	.	.	.	.	.	.	8E-/Lyy	8E-\Lyy	.	4a-/yy	.	.	.
.	.	.	.	.	.	.	.	.	8F/Jyy	8F\Jyy	.	.	.	.	.
.	.	.	.	.	.	.	.	.	[y4G-/yy	[y>4G-\yy	.	8b-/Lyy	.	.	.
.	.	.	.	.	.	.	.	.	.	.	.	8cc/Jyy	.	.	.
=52	=52	=52	=52	=52	=52	=52	=52	=52	=52	=52	=52	=52	=52	=52	=52
!	!	!	!	!	!	!	!	!	!	!	!	!	!	!LO:TX:t=P:problem=kreska taktowa w kolorze niebieskim [wszystkie systemy]	!
1ryy	.	1ryy	.	1ryy	1ryy	.	1ryy	.	2G-/]yy	2G-\]yy	.	[y2dd-/yy	.	1ryy	.
.	.	.	.	.	.	.	.	.	[y2D-/)yy	[y>2D-\yy	.	8dd-/])yy	.	.	.
.	.	.	.	.	.	.	.	.	.	.	.	8ryy	.	.	.
.	.	.	.	.	.	.	.	.	.	.	.	4ryy	.	.	.
=53	=53	=53	=53	=53	=53	=53	=53	=53	=53	=53	=53	=53	=53	=53	=53
!LO:TX:b:B:t==B.:color=red	!	!	!	!	!	!	!	!	!	!	!	!	!	!LO:TX:a:B:t==B.:color=red	!
1ryy	.	1ryy	.	1ryy	1ryy	.	1ryy	.	1D-]yy	1D-]yy	.	1ryy	.	1ryy	.
*	*	*	*	*	*	*	*	*	*v	*v	*	*	*	*	*
=54	=54	=54	=54	=54	=54	=54	=54	=54	=54	=54	=54	=54	=54	=54
!	!	!	!	!	!	!	!	!	!	!	!	!	!LO:TX:t=P:problem=kreska taktowa w kolorze niebieskim [wszystkie systemy]	!
!	!	!	!LO:DY:rj	!	!	!	!	!	!	!LO:DY:rj	!	!	!LO:TX:a:B:t=piu mosso.:color=gray	!
1ryy	.	[>1DD-	p	1ryy	1ryy	.	[>1F	.	[1A- [>1D-	p	1ryy	.	1ryy	.
=55	=55	=55	=55	=55	=55	=55	=55	=55	=55	=55	=55	=55	=55	=55
*	*	*rep	*	*	*	*	*rep	*	*rep	*	*	*	*	*
1ryy	.	1DD-_>	.	1ryy	1ryy	.	1F_>	.	(1A-] 1D-_	.	1ryy	.	1ryy	.
*	*	*Xrep	*	*	*	*	*Xrep	*	*Xrep	*	*	*	*	*
=56	=56	=56	=56	=56	=56	=56	=56	=56	=56	=56	=56	=56	=56	=56
*	*	*	*	*	*	*	*	*	*^	*	*	*	*	*
*	*	*	*	*	*	*	*rep	*	*	*rep	*	*	*	*	*
1ryy	.	1DD-_>	.	1ryy	1ryy	.	1F_>	.	1An)	1D-]	.	1ryy	.	1ryy	.
*	*	*	*	*	*	*	*Xrep	*	*	*Xrep	*	*	*	*	*
*	*	*	*	*	*	*	*	*	*v	*v	*	*	*	*	*
=57	=57	=57	=57	=57	=57	=57	=57	=57	=57	=57	=57	=57	=57	=57
*	*	*rep	*	*	*	*	*rep	*	*	*	*	*	*	*
1ryy	.	1DD-_>	.	1ryy	1ryy	.	1F_>	.	1ryy	.	1ryy	.	1ryy	.
*	*	*Xrep	*	*	*	*	*Xrep	*	*	*	*	*	*	*
=58	=58	=58	=58	=58	=58	=58	=58	=58	=58	=58	=58	=58	=58	=58
*	*	*	*	*	*^	*	*^	*	*^	*	*^	*	*^	*
!	!	!	!	!	!	!	!	!	!	!	!	!	!	!	!	!	!LO:TX:a:B:t=X:color=brown:note=obwiedziona niebieskim kolorem:rj	!	!
1ryy	.	4DD-/]	.	1ryy	2r	2ryy	.	4F/]	2ryy	.	4B-/	4D-\	.	2r	2ryy	.	2r	2ryy	.
.	.	4r	.	.	.	.	.	4r	.	.	4r	4ryy	f	.	.	.	.	.	.
!	!	!	!	!	!	!	!	!	!	!LO:DY:rj	!	!	!	!	!	!LO:DY:rj	!	!	!LO:DY:rj
.	.	2r	.	.	4B-'/	4B-\	.	4f/|	4f\	f	4D-/|	4D-\	.	4b-/|	4b-\	f	4b-/|	4b-\	f
!	!	!	!	!	!	!	!LO:DY:rj	!	!	!	!	!	!	!	!	!	!	!	!
.	.	.	.	.	4B-/|	4B-\	f	4f/|	4f\	.	4BB-/|	4BB-\	.	4b-/|	4b-\	.	4dd-/|	4dd-\	.
=59	=59	=59	=59	=59	=59	=59	=59	=59	=59	=59	=59	=59	=59	=59	=59	=59	=59	=59	=59
!	!LO:DY:rj	!	!	!	!	!	!	!	!	!	!	!	!	!	!	!	!	!	!
1BB-yTT	sf >	[1BB-	sf >	1ryy	(1e-	(>1e-	sf >	(1g-	(>1g-X	sf >	(2E-/	2E-\	sf >	1a	1a	sf >	(1cc	(>1cc	sf >
.	.	.	.	.	.	.	.	.	.	.	4F/	4F\	.	.	.	.	.	.	.
.	.	.	.	.	.	.	.	.	.	.	4E-/	4E-\	.	.	.	.	.	.	.
=60	=60	=60	=60	=60	=60	=60	=60	=60	=60	=60	=60	=60	=60	=60	=60	=60	=60	=60	=60
4BB-y/	]	4BB-/]	]	1ryy	4d-X/)	4d-X\)	]	4f/)	4f\)	]	4D-/)	4D-\	]	4b-/	4b-'\	]	4b-/)	4b-\)	]
4r	.	4r	.	.	4r	4ryy	f	4r	4ryy	.	4r	4ryy	f	4r	4ryy	f	4r	4ryy	f
!	!	!	!	!	!	!	!	!	!	!LO:DY:rj	!	!	!	!	!	!	!	!	!
2r	.	2r	.	.	4d-'/	4d-\	.	4f'/	4f\	f	4D-/|	4D-\	.	4b-/|	4b-\	.	4b-'/	4b-\	.
.	.	.	.	.	4d-'/	4d-\	.	4f'/	4f\	.	4BB-/|	4BB-\	.	4b-/|	4b-\	.	4dd-'/	4dd-\	.
=61	=61	=61	=61	=61	=61	=61	=61	=61	=61	=61	=61	=61	=61	=61	=61	=61	=61	=61	=61
!	!LO:DY:rj	!LO:TX:t=P:problem=początek łuku na końcu systemu	!	!	!	!	!	!	!	!	!	!	!LO:DY:rj	!	!	!	!	!	!
1BB-yTT	sf >	1BB-	sf >	1ryy	(1e-	(>1e-	sf >	(1g-	(>1g-X	sf >	(2E-/	2E-\	f >	(1a	(>1a	sf >	(1cc	(>1cc	sf >
.	.	.	.	.	.	.	.	.	.	.	4F/	4F\	.	.	.	.	.	.	.
!	!	!	!	!	!	!	!	!	!	!	!LO:TX:t=P:problem=brak początku łuku	!LO:TX:t=P:problem=brak początku łuku	!	!	!	!	!	!	!
.	]]	.	]]	.	.	.	]]	.	.	]]	(4E-/)	(>4E-\	]]	.	.	]]	.	.	]]
!!LO:PB:g=original
=62	=62	=62	=62	=62	=62	=62	=62	=62	=62	=62	=62	=62	=62	=62	=62	=62	=62	=62	=62
1r	.	1r	.	1ryy	4d-X/)	4d-X\)	.	4f/)	4f\)	.	4D-/)	4D-\)	.	4b-/)	4b-\)	.	4b-'/)	4b-\)	.
!	!	!	!	!	!	!	!LO:DY:rj	!	!	!LO:DY:rj	!	!	!LO:DY:rj	!	!	!LO:DY:rj	!	!	!LO:DY:rj
.	.	.	.	.	4B-^/	4B-\	f	4B-^/	4B-\	f	4BB-^/	4BB-\	f	4b-^/	4b-\	f	4b-^/	4b-\	f
.	.	.	.	.	4c^/	4c\	.	4c^/	4c\	.	4C^/	4C\	.	4cc^/	4cc\	.	4cc^/	4cc\	.
.	.	.	.	.	4d-X^/	4d-X\	.	4d-^/	4d-\	.	4D-^/	4D-\	.	4dd-^/	4dd-\	.	4dd-^/	4dd-\	.
=63	=63	=63	=63	=63	=63	=63	=63	=63	=63	=63	=63	=63	=63	=63	=63	=63	=63	=63	=63
*	*	*	*	*	*	*	*	*	*	*	*	*	*	*	*	*	*2\right	*	*
1r	.	1r	.	1ryy	[2.e-^/	2.e-\	.	[2.e-X^/	2.e-X\	.	1E-^	1E-	.	[2.ee-^/	[>2.ee-\	.	[2.ee-^/	2.ee-\	.
.	.	.	.	.	8e-/L]	8e-\L	.	8e-/L]	8e-\L	.	.	.	.	8ee-/L]	8ee-\L]	.	8ee-/L]	8ee-\L	.
.	.	.	.	.	8E-'/J	8E-\J	.	8e-'/J	8e-\J	.	.	.	.	8e-'/J	8e-\J	.	8e-|/J	8e-\J	.
*	*	*	*	*	*	*	*	*v	*v	*	*	*	*	*	*	*	*	*	*
=64	=64	=64	=64	=64	=64	=64	=64	=64	=64	=64	=64	=64	=64	=64	=64	=64	=64	=64
1r	.	1r	.	1ryy	2E-^^/	2E-\	.	2e-X^^\	.	2EE-^^/	2EE-\	.	2e-^^/	2e-\	.	2e-^^/	2e-\	.
.	.	.	.	.	2E-^^/	2E-\	.	2e-^^\	.	2EE-^^/	2EE-\	.	2e-^^/	2e-\	.	2e-^^/	2e-\	.
*	*	*	*	*	*	*	*	*	*	*	*	*	*v	*v	*	*	*	*
*	*	*	*	*	*	*	*	*	*	*	*	*	*	*	*v	*v	*
=65	=65	=65	=65	=65	=65	=65	=65	=65	=65	=65	=65	=65	=65	=65	=65	=65
*	*	*	*	*	*	*	*	*^	*	*	*	*	*	*	*	*
!	!	!	!	!	!	!	!	!	!	!	!	!	!	!	!	!	!LO:HP:a
!	!	!LO:TX:a:t=Solo.	!LO:DY:rj	!	!	!	!LO:DY:rj:t=sff	!	!	!LO:DY:rj:t=sff	!LO:TX:a:t=1	!	!LO:DY:rj:t=sff	!LO:TX:t=P:problem=dwie ligatury	!LO:DY:rj:t=sff	!	!LO:DY:rj:t=sff
1r	.	[1EE-	fp	1ryy	[1E-	[>1E-	sf >	[1e-X	1e-	sf	[1EE-	[>1EE-	sf >	[>1e-	sf > ]]	[>1e-	sf >
=66	=66	=66	=66	=66	=66	=66	=66	=66	=66	=66	=66	=66	=66	=66	=66	=66	=66
*	*	*	*	*	*	*	*	*	*	*	*	*	*	*^	*	*^	*
!	!	!	!	!	!	!	!	!	!	!	!	!	!	!	!	!LO:DY:rj	!	!	!LO:DY:rj
1r	.	1EE-_	.	1ryy	4E-/]	4E-\]	]	4e-X/]	4e-X\	.	4EE-/]	4EE-\]	]	4e-/]	4e-\	p	4e-/]	4e-\	] p
.	.	.	.	.	4r	4ryy	.	4r	4ryy	.	4r	4ryy	p	4r	4ryy	p	4r	4ryy	.
.	.	.	.	.	2r	2ryy	.	2r	2ryy	.	4G-'/	2r	.	4e-'>/	2ryy	.	2r	2ryy	.
.	.	.	.	.	.	.	.	.	.	.	4E-|/	.	.	4g-'>/	.	.	.	.	.
.	.	.	.	.	.	.	p	.	.	p	.	.	p	.	.	.	.	.	.
*	*	*	*	*	*clefF4	*	*	*	*	*	*	*	*	*	*	*	*	*	*
*	*	*	*	*	*v	*v	*	*v	*v	*	*	*	*	*	*	*	*v	*v	*
=67	=67	=67	=67	=67	=67	=67	=67	=67	=67	=67	=67	=67	=67	=67	=67	=67
!	!LO:DY:rj	!	!	!	!	!	!	!	!	!	!	!	!	!	!	!
1E-yTT	p	1EE-_	.	1ryy	[1EE- [1EEE-	p	(>1F	.	(1C	(1AAn	.	(1f	1r	.	1r	.
=68	=68	=68	=68	=68	=68	=68	=68	=68	=68	=68	=68	=68	=68	=68	=68	=68
4E-yTTT\	.	1EE-_	.	1ryy	4EE-] 4EEE-/]	.	4G-X/)	.	4E-/)	4BB-\)	.	4e-/)	1r	.	1r	.
4r	.	.	.	.	4r	.	4r	.	4r	4ryy	.	4r	.	.	.	.
2r	.	.	.	.	2ryy	.	2r	.	4G-'/	2r	.	4e-'/	.	.	.	.
.	.	.	.	.	.	.	.	.	4E-|/	.	.	4g-'/	.	.	.	.
*	*	*	*	*	*	*	*	*	*	*	*	*v	*v	*	*	*
=69	=69	=69	=69	=69	=69	=69	=69	=69	=69	=69	=69	=69	=69	=69	=69
1E-yTT	.	1EE-]	.	1ryy	[1EE- [1EEE-	.	(>1F	.	(1C	(1AAn	.	(>1f	.	1r	.
!!LO:LB:g=original
=70	=70	=70	=70	=70	=70	=70	=70	=70	=70	=70	=70	=70	=70	=70	=70
*	*	*	*	*	*	*	*	*	*	*	*	*^	*	*	*
!	!	!	!	!	!LO:TX:t=P:problem=brak zakończenia ligatur	!	!LO:TX:t=P:problem=brak zakończenia łuku	!	!	!	!	!	!	!	!	!
4E-y\	.	4EE-/	.	1ryy	4EE-] 4EEE-/]	.	4G-X/)	.	4E-/)	4BB-\)	.	4e-/)	4ryy	.	1r	.
4r	.	4r	.	.	4r	.	4r	.	(4Dn/	4Dn'\	.	4dn/|	4dn\	.	.	.
2r	.	2r	.	.	2ryy	.	2r	.	4E-/	4E-'\	.	4e-/|	4e-\	.	.	.
.	.	.	.	.	.	.	.	.	4F/	4F'\	.	4f/|	4f\	.	.	.
=71	=71	=71	=71	=71	=71	=71	=71	=71	=71	=71	=71	=71	=71	=71	=71	=71
1ryy	.	1ryy	.	1ryy	1ryy	.	1ryy	.	[2.G-X/)	[>2.G-X\	.	2.g-X/	[2.g-X\	.	1ryy	.
.	.	.	.	.	.	.	.	.	8G-/L]	8G-\L]	.	8g-/L	8g-\L]	.	.	.
.	.	.	.	.	.	.	.	.	8GG-X/J	8GG-X\J	.	8G-X/J|	8G-X\J	.	.	.
=72	=72	=72	=72	=72	=72	=72	=72	=72	=72	=72	=72	=72	=72	=72	=72	=72
1ryy	.	1ryy	.	1ryy	1ryy	.	1ryy	.	[2GG-X^^/	2GG-X\	.	2G-X^^/	[2G-X\	.	1ryy	.
.	.	.	.	.	.	.	.	.	2GG-^^/_	2GG-\	.	2G-^^/	2G-\_	.	.	.
=73	=73	=73	=73	=73	=73	=73	=73	=73	=73	=73	=73	=73	=73	=73	=73	=73
1ryy	.	1ryy	.	1ryy	1ryy	.	1ryy	.	1GG-^^_	[1GG-	.	1G-^^	1G-X_	.	1ryy	.
=74	=74	=74	=74	=74	=74	=74	=74	=74	=74	=74	=74	=74	=74	=74	=74	=74
!LO:TX:a:t=Solo:note=podkreślone:rj	!LO:DY:rj	!	!	!	!	!	!	!	!	!	!	!	!	!	!LO:TX:a:B:t=O:color=brown	!
1BB-yTT	pp	1ryy	.	1ryy	1ryy	.	1ryy	.	4GG-/]	4GG-\]	.	4G-/	4G-\]	.	1ryy	.
.	.	.	.	.	.	.	.	.	4r	4ryy	.	4r	4ryy	.	.	.
.	.	.	.	.	.	.	.	.	2r	2ryy	.	2r	2ryy	.	.	.
*	*	*	*	*	*	*	*	*	*v	*v	*	*	*	*	*	*
*	*	*	*	*	*	*	*	*	*	*	*v	*v	*	*	*
=75	=75	=75	=75	=75	=75	=75	=75	=75	=75	=75	=75	=75	=75	=75
*rep	*	*	*	*	*	*	*	*	*	*	*	*	*	*
!LO:TX:a:t=2	!	!	!	!	!	!	!	!	!	!	!	!	!	!
1BB-yTTT	.	1ryy	.	1ryy	1ryy	.	1ryy	.	1ryy	.	1ryy	.	1ryy	.
*Xrep	*	*	*	*	*	*	*	*	*	*	*	*	*	*
=76	=76	=76	=76	=76	=76	=76	=76	=76	=76	=76	=76	=76	=76	=76
*rep	*	*	*	*	*	*	*	*	*	*	*	*	*	*
!LO:TX:a:t=3	!	!	!	!	!	!	!	!	!	!	!	!	!	!
1BB-yTTT	.	1ryy	.	1ryy	1ryy	.	1ryy	.	1ryy	.	1ryy	.	1ryy	.
*Xrep	*	*	*	*	*	*	*	*	*	*	*	*	*	*
=77	=77	=77	=77	=77	=77	=77	=77	=77	=77	=77	=77	=77	=77	=77
*rep	*	*	*	*	*	*	*	*	*	*	*	*	*	*
!LO:TX:a:t=4	!	!	!	!	!	!	!	!	!	!	!	!	!	!
1BB-yTTT	.	1ryy	.	1ryy	1ryy	.	1ryy	.	1ryy	.	1ryy	.	1ryy	.
*Xrep	*	*	*	*	*	*	*	*	*	*	*	*	*	*
=78	=78	=78	=78	=78	=78	=78	=78	=78	=78	=78	=78	=78	=78	=78
*rep	*	*	*	*	*	*	*	*	*	*	*	*	*	*
!LO:TX:a:t=5	!	!	!	!	!	!	!	!	!	!	!	!	!	!
1BB-yTTT	.	1ryy	.	1ryy	1ryy	.	1ryy	.	1ryy	.	1ryy	.	1ryy	.
*Xrep	*	*	*	*	*	*	*	*	*	*	*	*	*	*
=79	=79	=79	=79	=79	=79	=79	=79	=79	=79	=79	=79	=79	=79	=79
*rep	*	*	*	*	*	*	*	*	*	*	*	*	*	*
!LO:TX:a:t=6	!	!	!	!	!	!	!	!	!	!	!	!	!	!
1BB-yTTT	.	1ryy	.	1ryy	1ryy	.	1ryy	.	1ryy	.	1ryy	.	1ryy	.
*Xrep	*	*	*	*	*	*	*	*	*	*	*	*	*	*
=80	=80	=80	=80	=80	=80	=80	=80	=80	=80	=80	=80	=80	=80	=80
*rep	*	*	*	*	*	*	*	*	*	*	*	*	*	*
!LO:TX:a:t=7	!	!	!	!	!	!	!	!	!	!	!	!	!	!
1BB-yTTT	.	1ryy	.	1ryy	1ryy	.	1ryy	.	1ryy	.	1ryy	.	1ryy	.
*Xrep	*	*	*	*	*	*	*	*	*	*	*	*	*	*
=81	=81	=81	=81	=81	=81	=81	=81	=81	=81	=81	=81	=81	=81	=81
*rep	*	*	*	*	*	*	*	*	*	*	*	*	*	*
!LO:TX:a:t=8	!	!	!	!	!	!	!	!	!	!	!	!	!	!
1BB-yTTT	.	1ryy	.	1ryy	1ryy	.	1ryy	.	1ryy	.	1ryy	.	1ryy	.
*Xrep	*	*	*	*	*	*	*	*	*	*	*	*	*	*
=82	=82	=82	=82	=82	=82	=82	=82	=82	=82	=82	=82	=82	=82	=82
*rep	*	*	*	*	*	*	*	*	*	*	*	*	*	*
!LO:TX:a:t=9	!	!	!	!	!	!	!	!	!	!	!	!	!	!
1BB-yTTT	.	1ryy	.	1ryy	1ryy	.	1ryy	.	1ryy	.	1ryy	.	1ryy	.
*Xrep	*	*	*	*	*	*	*	*	*	*	*	*	*	*
!!LO:PB:g=original
=83	=83	=83	=83	=83	=83	=83	=83	=83	=83	=83	=83	=83	=83	=83
*rep	*	*	*	*	*	*	*	*	*	*	*	*	*	*
!LO:TX:a:t=10	!	!	!	!	!	!	!	!	!	!LO:DY:t=pp.	!	!	!LO:TX:a:B:t=tempo 1mo:color=dodgerblue	!
1BB-y	.	1ryy	.	1ryy	1ryy	.	1ryy	.	[1D- [>1BB-	pp	1ryy	.	1ryy	.
*Xrep	*	*	*	*	*	*	*	*	*	*	*	*	*	*
=84	=84	=84	=84	=84	=84	=84	=84	=84	=84	=84	=84	=84	=84	=84
*rep	*	*	*	*	*	*	*	*	*rep	*	*	*	*	*
!LO:TX:a:t=11	!	!	!	!	!	!	!	!	!	!	!	!	!	!
1BB-y	.	1ryy	.	1ryy	1ryy	.	1ryy	.	1D-_ 1BB-_>	.	1ryy	.	1ryy	.
*Xrep	*	*	*	*	*	*	*	*	*Xrep	*	*	*	*	*
=85	=85	=85	=85	=85	=85	=85	=85	=85	=85	=85	=85	=85	=85	=85
*rep	*	*	*	*	*	*	*	*	*	*	*	*	*	*
!LO:TX:a:t=12	!	!	!	!	!	!	!	!	!	!	!	!	!	!
1BB-y	.	1ryy	.	1ryy	1ryy	.	1ryy	.	4D-] 4BB-/]	.	1ryy	.	1ryy	.
.	.	.	.	.	.	.	.	.	4r	.	.	.	.	.
.	.	.	.	.	.	.	.	.	2r	.	.	.	.	.
*Xrep	*	*	*	*	*	*	*	*	*	*	*	*	*	*
=86	=86	=86	=86	=86	=86	=86	=86	=86	=86	=86	=86	=86	=86	=86
4BB-y/	.	1ryy	.	1ryy	1ryy	.	1ryy	.	1r	.	1ryy	.	1ryy	.
4r	.	.	.	.	.	.	.	.	.	.	.	.	.	.
2r	.	.	.	.	.	.	.	.	.	pp	.	.	.	.
=87	=87	=87	=87	=87	=87	=87	=87	=87	=87	=87	=87	=87	=87	=87
*	*	*	*	*	*	*	*	*	*^	*	*	*	*	*
1r	.	1ryy	.	1ryy	1ryy	.	1ryy	.	(2G-/	2G-\	.	1ryy	.	1ryy	.
.	.	.	.	.	.	.	.	.	4F/	4F\	.	.	.	.	.
.	.	.	.	.	.	.	.	.	4E-/	4E-\	.	.	.	.	.
=88	=88	=88	=88	=88	=88	=88	=88	=88	=88	=88	=88	=88	=88	=88	=88
1r	.	1ryy	.	1ryy	1ryy	.	1ryy	.	4D-/	4D-\	.	1ryy	.	1ryy	.
.	.	.	.	.	.	.	.	.	4Dn/	4Dn\	.	.	.	.	.
.	.	.	.	.	.	.	.	.	4E-/	4E-\	.	.	.	.	.
.	.	.	.	.	.	.	.	.	4En/	4En\	.	.	.	.	.
=89	=89	=89	=89	=89	=89	=89	=89	=89	=89	=89	=89	=89	=89	=89	=89
1r	.	1ryy	.	1ryy	1ryy	.	1ryy	.	4F/	4F\	.	1ryy	.	1ryy	.
.	.	.	.	.	.	.	.	.	4D-X/	4D-X\	.	.	.	.	.
.	.	.	.	.	.	.	.	.	4BB-/	4BB-\	.	.	.	.	.
.	.	.	.	.	.	.	.	.	4GG-/	4GG-\)	.	.	.	.	.
=90	=90	=90	=90	=90	=90	=90	=90	=90	=90	=90	=90	=90	=90	=90	=90
1ryy	.	1r	.	1ryy	1ryy	.	1r	.	[1AA-	[>1AA-	.	1r	.	1ryy	.
=91	=91	=91	=91	=91	=91	=91	=91	=91	=91	=91	=91	=91	=91	=91	=91
!	!	!LO:TX:a:t=Soli:rj	!LO:DY:rj	!	!	!	!LO:TX:a:t=Soli	!LO:DY:rj	!	!	!	!LO:TX:a:i:t=Soli	!LO:DY:rj	!	!
1ryy	.	[1FF	pp	1ryy	1ryy	.	2A-X 2F/	p	1AA-_	1AA-_>	.	(2f 2d-/	p	1ryy	.
.	.	.	.	.	.	.	4A- 4F/	.	.	.	.	4f 4d-'/	.	.	.
.	.	.	.	.	.	.	4A- 4F/	.	.	.	.	4f 4d-'/)	.	.	.
!!LO:LB:g=original
=92	=92	=92	=92	=92	=92	=92	=92	=92	=92	=92	=92	=92	=92	=92	=92
1ryy	.	1FF_	.	1ryy	1r	.	2.A-X 2.F/	.	1AA-_	1AA-_>	.	2.f 2.d-/	.	1r	.
.	.	.	.	.	.	.	4A- 4F/	.	.	.	.	4f 4d-/	.	.	.
=93	=93	=93	=93	=93	=93	=93	=93	=93	=93	=93	=93	=93	=93	=93	=93
1ryy	.	1FF_	.	1ryy	1r	.	(4.A-X 4.F'/	.	1AA-_	1AA-_>	.	(4.f 4.d-/	.	1r	.
.	.	.	.	.	.	.	8A- 8F'/	.	.	.	.	8f 8d-'/	.	.	.
.	.	.	.	.	.	.	4A- 4F'/	.	.	.	.	4f 4d-'/	.	.	.
.	.	.	.	.	.	.	4A- 4F'/)	.	.	.	.	4f 4d-'/)	.	.	.
=94	=94	=94	=94	=94	=94	=94	=94	=94	=94	=94	=94	=94	=94	=94	=94
*	*	*	*	*	*	*	*	*	*	*	*	*^	*	*	*
1ryy	.	2FF/]	.	1ryy	1r	.	2A- 2F/	.	2AA-/]	2AA-\]	.	2f/	2d-\	.	1r	.
.	.	2FF/	.	.	.	.	2A- 2F/	.	2AA-/	2AA-\	.	2f/	2d-\	.	.	.
*	*	*	*	*	*	*	*	*	*	*	*	*v	*v	*	*	*
=95	=95	=95	=95	=95	=95	=95	=95	=95	=95	=95	=95	=95	=95	=95	=95
1r;	.	1DD-;	.	1ryy	1r;	.	1A- 1F;	.	1AA-;	1AA-	.	1f 1d-;	.	1r;	.
*	*	*	*	*	*	*	*	*	*v	*v	*	*	*	*	*
==	==	==	==	==	==	==	==	==	==	==	==	==	==	==
*-	*-	*-	*-	*-	*-	*-	*-	*-	*-	*-	*-	*-	*-	*-
!!!system-decoration: (<g1>{s4,s5}{s6,s7}<s8>)
!!!RDF**kern: > = above
!!!RDF**kern: < = below
!!!RDF**kern: | = vertical stroke
!!!RDF**kern: @ = marked note, color=dodgerblue
!!!ENC: Marcin Jachim
!!!END: 2021-08-13
!!!ENC: Andrzej Kubiczek
!!!END: 2021-09-25
